dist/assets/img/icons/best.svg

<svg width="246" height="56" viewBox="0 0 246 56" fill="none" xmlns="http://www.w3.org/2000/svg">
<rect width="246" height="56" fill="white"/>
<path d="M64.784 27.584C65.872 28.272 66.288 29.264 66.288 30.384C66.288 32.656 64.688 34 62.096 34H57.088V22.08H62.096C64.384 22.08 65.808 23.344 65.808 25.376C65.808 26.24 65.488 27.008 64.784 27.584ZM59.104 23.792V26.768H62.16C63.12 26.768 63.744 26.176 63.744 25.28C63.744 24.4 63.12 23.792 62.16 23.792H59.104ZM62.272 32.224C63.456 32.224 64.24 31.488 64.24 30.384C64.24 29.28 63.456 28.544 62.272 28.544H59.104V32.224H62.272ZM75.7081 29.376C75.7081 29.68 75.6761 29.984 75.6121 30.24H69.2761C69.3721 31.616 70.3801 32.496 71.7081 32.496C72.7321 32.496 73.4201 32 73.8041 31.296L75.3881 32.064C74.8601 33.296 73.4521 34.192 71.6921 34.192C69.0841 34.192 67.2761 32.208 67.2761 29.68C67.2761 27.088 69.1161 25.184 71.5481 25.184C73.9801 25.184 75.7081 27.088 75.7081 29.376ZM69.3081 28.752H73.6441C73.5801 27.6 72.6521 26.784 71.5481 26.784C70.4281 26.784 69.5321 27.488 69.3081 28.752ZM80.192 34.192C78.4 34.192 76.928 33.28 76.384 31.776L77.872 31.056C78.32 32.08 79.168 32.624 80.192 32.624C81.056 32.624 81.616 32.224 81.616 31.632C81.616 31.04 81.008 30.784 80.48 30.64L79.008 30.256C77.504 29.84 76.752 28.96 76.752 27.792C76.752 26.24 78.048 25.184 79.952 25.184C81.648 25.184 82.992 26.032 83.52 27.408L82.016 28.112C81.696 27.296 80.928 26.8 79.952 26.8C79.152 26.8 78.656 27.168 78.656 27.712C78.656 28.256 79.2 28.528 79.696 28.672L81.232 29.104C82.72 29.52 83.52 30.384 83.52 31.584C83.52 33.136 82.16 34.192 80.192 34.192ZM88.7223 34.096C86.7863 34.096 85.6983 33.008 85.6983 31.104V27.104H84.1303V25.376H84.3863C85.2183 25.376 85.6983 24.912 85.6983 24.08V22.704H87.6183V25.376H89.6663V27.104H87.6183V31.104C87.6183 31.84 87.9223 32.528 89.1383 32.528C89.2983 32.528 89.5063 32.512 89.7143 32.48V34.016C89.4103 34.064 89.0263 34.096 88.7223 34.096ZM94.3326 34.192C92.5406 34.192 91.0686 33.28 90.5246 31.776L92.0126 31.056C92.4606 32.08 93.3086 32.624 94.3326 32.624C95.1966 32.624 95.7566 32.224 95.7566 31.632C95.7566 31.04 95.1486 30.784 94.6206 30.64L93.1486 30.256C91.6446 29.84 90.8926 28.96 90.8926 27.792C90.8926 26.24 92.1886 25.184 94.0926 25.184C95.7886 25.184 97.1326 26.032 97.6606 27.408L96.1566 28.112C95.8366 27.296 95.0686 26.8 94.0926 26.8C93.2926 26.8 92.7966 27.168 92.7966 27.712C92.7966 28.256 93.3406 28.528 93.8366 28.672L95.3726 29.104C96.8606 29.52 97.6606 30.384 97.6606 31.584C97.6606 33.136 96.3006 34.192 94.3326 34.192ZM106.927 29.376C106.927 29.68 106.895 29.984 106.831 30.24H100.495C100.591 31.616 101.599 32.496 102.927 32.496C103.951 32.496 104.639 32 105.023 31.296L106.607 32.064C106.079 33.296 104.671 34.192 102.911 34.192C100.303 34.192 98.4949 32.208 98.4949 29.68C98.4949 27.088 100.335 25.184 102.767 25.184C105.199 25.184 106.927 27.088 106.927 29.376ZM100.527 28.752H104.863C104.799 27.6 103.871 26.784 102.767 26.784C101.647 26.784 100.751 27.488 100.527 28.752ZM108.147 34V22.08H110.067V34H108.147ZM111.912 34V22.08H113.832V34H111.912ZM123.63 29.376C123.63 29.68 123.598 29.984 123.534 30.24H117.198C117.294 31.616 118.302 32.496 119.63 32.496C120.654 32.496 121.342 32 121.726 31.296L123.31 32.064C122.782 33.296 121.374 34.192 119.614 34.192C117.006 34.192 115.198 32.208 115.198 29.68C115.198 27.088 117.038 25.184 119.47 25.184C121.902 25.184 123.63 27.088 123.63 29.376ZM117.23 28.752H121.566C121.502 27.6 120.574 26.784 119.47 26.784C118.35 26.784 117.454 27.488 117.23 28.752ZM128.994 25.28H129.794V27.008H128.754C127.57 27.008 126.77 27.776 126.77 29.12V34H124.85V25.376H126.658V26.576C127.106 25.632 127.938 25.28 128.994 25.28ZM134.255 34.192C132.463 34.192 130.991 33.28 130.447 31.776L131.935 31.056C132.383 32.08 133.231 32.624 134.255 32.624C135.119 32.624 135.679 32.224 135.679 31.632C135.679 31.04 135.071 30.784 134.543 30.64L133.071 30.256C131.567 29.84 130.815 28.96 130.815 27.792C130.815 26.24 132.111 25.184 134.015 25.184C135.711 25.184 137.055 26.032 137.583 27.408L136.079 28.112C135.759 27.296 134.991 26.8 134.015 26.8C133.215 26.8 132.719 27.168 132.719 27.712C132.719 28.256 133.263 28.528 133.759 28.672L135.295 29.104C136.783 29.52 137.583 30.384 137.583 31.584C137.583 33.136 136.223 34.192 134.255 34.192Z" fill="#0D086C"/>
<g clip-path="url(#clip0_71_380)">
<path d="M174 43C182.284 43 189 36.2843 189 28C189 19.7157 182.284 13 174 13C165.716 13 159 19.7157 159 28C159 36.2843 165.716 43 174 43Z" fill="#5251C5"/>
<path d="M188.958 29.1331C186.099 26.2747 176.812 16.9873 176.812 16.9873L162.987 30.8118L175.133 42.9576C182.514 42.4063 188.406 36.514 188.958 29.1331Z" fill="#1F1D80"/>
<path d="M172.902 26.8601L166.91 20.868L166.928 20.6655L170.606 16.9873C172.32 15.2736 175.098 15.2736 176.812 16.9873C178.526 18.701 178.526 21.4794 176.812 23.1931L173.134 26.8712L172.902 26.8601Z" fill="white"/>
<path d="M176.812 23.193L173.134 26.871L172.902 26.8602L169.92 23.8788L176.812 16.9874C177.669 17.8442 178.097 18.967 178.097 20.0898C178.097 21.2134 177.669 22.3362 176.812 23.193Z" fill="#D1FEFB"/>
<path d="M162.987 30.8118C161.274 29.0981 161.274 26.3197 162.987 24.606L166.928 20.6655L173.134 26.8712L169.193 30.8118C167.48 32.5255 164.701 32.5255 162.987 30.8118Z" fill="#91DDFF"/>
<path d="M173.134 26.871L169.193 30.8116C167.48 32.5252 164.701 32.5252 162.988 30.8116L170.031 23.7681L173.134 26.871Z" fill="#5ECBF1"/>
<path d="M175.099 29.1399L181.091 35.132L181.072 35.3345L177.394 39.0127C175.68 40.7264 172.902 40.7264 171.188 39.0127C169.475 37.299 169.475 34.5206 171.188 32.8069L174.867 29.1288L175.099 29.1399Z" fill="white"/>
<path d="M181.072 35.3347L177.394 39.0126C175.681 40.7263 172.902 40.7263 171.188 39.0126L178.08 32.1212L181.091 35.1321L181.072 35.3347Z" fill="#D1FEFB"/>
<path d="M185.013 25.1882C186.726 26.9019 186.726 29.6803 185.013 31.394L181.072 35.3345L174.866 29.1287L178.807 25.1882C180.521 23.4745 183.299 23.4745 185.013 25.1882Z" fill="#FF405C"/>
<path d="M185.013 31.3941L181.072 35.3347L177.969 32.2319L185.013 25.1884C186.726 26.902 186.726 29.6804 185.013 31.3941Z" fill="#D01273"/>
</g>
<defs>
<clipPath id="clip0_71_380">
<rect width="30" height="30" fill="white" transform="translate(159 13)"/>
</clipPath>
</defs>
</svg>

<svg width="246" height="56" fill="none" xmlns="http://www.w3.org/2000/svg"><path fill="#fff" d="M0 0h246v56H0z"/><path d="M64.784 27.584c1.088.688 1.504 1.68 1.504 2.8 0 2.272-1.6 3.616-4.192 3.616h-5.008V22.08h5.008c2.288 0 3.712 1.264 3.712 3.296 0 .864-.32 1.632-1.024 2.208zm-5.68-3.792v2.976h3.056c.96 0 1.584-.592 1.584-1.488 0-.88-.624-1.488-1.584-1.488h-3.056zm3.168 8.432c1.184 0 1.968-.736 1.968-1.84s-.784-1.84-1.968-1.84h-3.168v3.68h3.168zm13.436-2.848c0 .304-.032.608-.096.864h-6.336c.096 1.376 1.104 2.256 2.432 2.256 1.024 0 1.712-.496 2.096-1.2l1.584.768c-.528 1.232-1.936 2.128-3.696 2.128-2.608 0-4.416-1.984-4.416-4.512 0-2.592 1.84-4.496 4.272-4.496 2.432 0 4.16 1.904 4.16 4.192zm-6.4-.624h4.336c-.064-1.152-.992-1.968-2.096-1.968-1.12 0-2.016.704-2.24 1.968zm10.884 5.44c-1.792 0-3.264-.912-3.808-2.416l1.488-.72c.448 1.024 1.296 1.568 2.32 1.568.864 0 1.424-.4 1.424-.992s-.608-.848-1.136-.992l-1.472-.384c-1.504-.416-2.256-1.296-2.256-2.464 0-1.552 1.296-2.608 3.2-2.608 1.696 0 3.04.848 3.568 2.224l-1.504.704c-.32-.816-1.088-1.312-2.064-1.312-.8 0-1.296.368-1.296.912s.544.816 1.04.96l1.536.432c1.488.416 2.288 1.28 2.288 2.48 0 1.552-1.36 2.608-3.328 2.608zm8.53-.096c-1.936 0-3.024-1.088-3.024-2.992v-4H84.13v-1.728h.256c.832 0 1.312-.464 1.312-1.296v-1.376h1.92v2.672h2.048v1.728h-2.048v4c0 .736.304 1.424 1.52 1.424.16 0 .368-.016.576-.048v1.536a6.91 6.91 0 01-.992.08zm5.61.096c-1.791 0-3.263-.912-3.807-2.416l1.488-.72c.448 1.024 1.296 1.568 2.32 1.568.864 0 1.424-.4 1.424-.992s-.608-.848-1.136-.992l-1.472-.384c-1.504-.416-2.256-1.296-2.256-2.464 0-1.552 1.296-2.608 3.2-2.608 1.696 0 3.04.848 3.568 2.224l-1.504.704c-.32-.816-1.088-1.312-2.064-1.312-.8 0-1.296.368-1.296.912s.544.816 1.04.96l1.536.432c1.488.416 2.288 1.28 2.288 2.48 0 1.552-1.36 2.608-3.328 2.608zm12.595-4.816c0 .304-.032.608-.096.864h-6.336c.096 1.376 1.104 2.256 2.432 2.256 1.024 0 1.712-.496 2.096-1.2l1.584.768c-.528 1.232-1.936 2.128-3.696 2.128-2.608 0-4.416-1.984-4.416-4.512 0-2.592 1.84-4.496 4.272-4.496 2.432 0 4.16 1.904 4.16 4.192zm-6.4-.624h4.336c-.064-1.152-.992-1.968-2.096-1.968-1.12 0-2.016.704-2.24 1.968zm7.62 5.248V22.08h1.92V34h-1.92zm3.765 0V22.08h1.92V34h-1.92zm11.718-4.624c0 .304-.032.608-.096.864h-6.336c.096 1.376 1.104 2.256 2.432 2.256 1.024 0 1.712-.496 2.096-1.2l1.584.768c-.528 1.232-1.936 2.128-3.696 2.128-2.608 0-4.416-1.984-4.416-4.512 0-2.592 1.84-4.496 4.272-4.496 2.432 0 4.16 1.904 4.16 4.192zm-6.4-.624h4.336c-.064-1.152-.992-1.968-2.096-1.968-1.12 0-2.016.704-2.24 1.968zm11.764-3.472h.8v1.728h-1.04c-1.184 0-1.984.768-1.984 2.112V34h-1.92v-8.624h1.808v1.2c.448-.944 1.28-1.296 2.336-1.296zm5.261 8.912c-1.792 0-3.264-.912-3.808-2.416l1.488-.72c.448 1.024 1.296 1.568 2.32 1.568.864 0 1.424-.4 1.424-.992s-.608-.848-1.136-.992l-1.472-.384c-1.504-.416-2.256-1.296-2.256-2.464 0-1.552 1.296-2.608 3.2-2.608 1.696 0 3.04.848 3.568 2.224l-1.504.704c-.32-.816-1.088-1.312-2.064-1.312-.8 0-1.296.368-1.296.912s.544.816 1.04.96l1.536.432c1.488.416 2.288 1.28 2.288 2.48 0 1.552-1.36 2.608-3.328 2.608z" fill="#0D086C"/><g clip-path="url(#clip0_71_380)"><path d="M174 43c8.284 0 15-6.716 15-15 0-8.284-6.716-15-15-15-8.284 0-15 6.716-15 15 0 8.284 6.716 15 15 15z" fill="#5251C5"/><path d="M188.958 29.133l-12.146-12.146-13.825 13.825 12.146 12.146c7.381-.552 13.273-6.444 13.825-13.825z" fill="#1F1D80"/><path d="M172.902 26.86l-5.992-5.992.018-.202 3.678-3.679a4.388 4.388 0 016.206 6.206l-3.678 3.678-.232-.01z" fill="#fff"/><path d="M176.812 23.193l-3.678 3.678-.232-.01-2.982-2.982 6.892-6.892a4.373 4.373 0 011.285 3.103 4.373 4.373 0 01-1.285 3.103z" fill="#D1FEFB"/><path d="M162.987 30.812a4.39 4.39 0 010-6.206l3.941-3.94 6.206 6.205-3.941 3.94a4.388 4.388 0 01-6.206 0z" fill="#91DDFF"/><path d="M173.134 26.871l-3.941 3.94a4.387 4.387 0 01-6.205 0l7.043-7.043 3.103 3.103z" fill="#5ECBF1"/><path d="M175.099 29.14l5.992 5.992-.019.203-3.678 3.678a4.388 4.388 0 01-6.206-6.206l3.679-3.678.232.01z" fill="#fff"/><path d="M181.072 35.335l-3.678 3.678a4.388 4.388 0 01-6.206 0l6.892-6.892 3.011 3.011-.019.203z" fill="#D1FEFB"/><path d="M185.013 25.188a4.39 4.39 0 010 6.206l-3.941 3.94-6.206-6.205 3.941-3.94a4.388 4.388 0 016.206 0z" fill="#FF405C"/><path d="M185.013 31.394l-3.941 3.94-3.103-3.102 7.044-7.044a4.39 4.39 0 010 6.206z" fill="#D01273"/></g><defs><clipPath id="clip0_71_380"><path fill="#fff" transform="translate(159 13)" d="M0 0h30v30H0z"/></clipPath></defs></svg>
